!!!COM: Bach, Johann Sebastian
!!!CDT: 1685/3//-1750/7/28/
!!!OTL@@DE: O Welt, sieh hier dein Leben
!!!AGN: 4-Part Chorale
!!!SCT: BH 366
!!!SCT: BWV 394
**harm	**root	**kern	**kern	**kern	**kern
!	!	!bass	!tenor	!alto	!soprno
*	*Iorgan	*Iorgan	*Iorgan	*Iorgan	*Iorgan
*M4/4	*M4/4	*M4/4	*M4/4	*M4/4	*M4/4
*met(c)	*met(c)	*met(c)	*met(c)	*met(c)	*met(c)
*MM60	*MM60	*MM60	*MM60	*MM60	*MM60
*k[]	*k[]	*k[]	*k[]	*k[]	*k[]
*C:	*C:	*C:	*C:	*C:	*C:
I	4AA	4c	4g	8cc	8ee
.	.	.	.	8b	8dd
=1	=1	=1	=1	=1	=1
IV	4DD	8f	8a	4.a	4cc
.	.	8e	8g	.	.
ii	4BB	4d	4f	.	4dd
.	.	.	.	8b	.
I	4AA	4c	4g	4.cc	8ee
.	.	.	.	.	8ff
Ib	4AA	4E	4c	.	4gg
.	.	.	.	8g	.
=2	=2	=2	=2	=2	=2
ii7	4BB	4D	4c	4a	2ff
V7	4EE	4G	4B	4g	.
I;	4AA;	4C;	4c;	4g;	4ee;
I	4AA	8c	4g	4cc	8ee
.	.	8d	.	.	8ff
=3	=3	=3	=3	=3	=3
Ib	4AA	4e	4g	8cc	4gg
.	.	.	.	8b	.
Ib	4AA	8E	4g	8cc	4gg
.	.	8F	.	8dd	.
V	4EE	4G	8g	8b	4dd
.	.	.	8f	8a	.
I	4AA	8c	4e	4g	8ee
.	.	8B	.	.	8dd
=4	=4	=4	=4	=4	=4
vi7	4FF#	4A	4e	4g	2cc
V7/V	4BB	4D	4d	4f#	.
V;	4EE;	4G;	4d;	4g;	4b;
V	4EE	8G	4B	4d	4g
.	.	8F	.	.	.
=5	=5	=5	=5	=5	=5
Ib	8AA	8E	4c	8g	4cc
IV	8DD	8F	.	8a	.
viioc	4GG#	8E	4f	4b	4dd
.	.	8D	.	.	.
I	8AA	4C	8g	8cc	8ee
viioc	8GG#	.	8f	8b	8dd
I	8AA	8c	8g	8cc	8ee
iib	8BB	8F	8a	8dd	8ff
=6	=6	=6	=6	=6	=6
V;	2EE;	2G;	2g;	2b;	2dd;
r	4r	4r	4r	4r	4r
V/vi	4CC#	4E	4g#	4b	8ee
.	.	.	.	.	8dd
!!linebreak: 2
=7	=7	=7	=7	=7	=7
vi	4FF#	4A	8e	4a	4cc
.	.	.	8f	.	.
Vb	4EE	4B	8e	4g	4dd
.	.	.	8d	.	.
I	4AA	8c	4c	8g	8ee
.	.	8d	.	8f	8ff
I	4AA	8c	4c	4e	4gg
.	.	8B	.	.	.
=8	=8	=8	=8	=8	=8
IVb	4DD	4A	8c	8e	2ff
.	.	.	4a	16d	.
.	.	.	.	16c	.
V7b	4EE	4B	.	4d	.
.	.	.	8g	.	.
I;	4AA;	4c;	4g;	4c;	4ee;
vi	4FF#	4A	4a	4cc	8ee
.	.	.	.	.	8ff
=9	=9	=9	=9	=9	=9
Vb	8EE	8B	4g	8dd	4gg
I	8AA	8c	.	8ee	.
Vb	4EE	8B	4d	8dd	4gg
.	.	8A	.	8cc	.
V	4EE	8G	8d	8b	4dd
.	.	8A	8c	8a	.
iiib	8CC#	8G	8B	4b	8ee
v7c/iii	8GG#	8F#	8A	.	8dd
=10	=10	=10	=10	=10	=10
iii7b	8CC#	4E	8G	8b	2cc
vic	8FF#	.	4e	16a	.
.	.	.	.	16g	.
viio7/V	4DD#	4F#	.	4a	.
.	.	.	8d	.	.
V;	4EE;	4G;	4d;	4g;	4b;
iii	4CC#	4E	8e	8g	4g
.	.	.	8d	8f	.
=11	=11	=11	=11	=11	=11
vi	4FF#	4A	4c	8e	4cc
.	.	.	.	8f	.
iii7b	8CC#	8G	8B	8e	4dd
iib	8BB	8F	8A	8d	.
Ib	4AA	8E	4.G	4c	8ee
.	.	8D	.	.	8ff
Ib	8AA	8E	.	4cc	8gg
IV	8DD	8F	8A	.	8ff
=12	=12	=12	=12	=12	=12
iiib	8CC#	8G	8B	8g	4ee
IV7	8DD	8F	4c	8a	.
V	4EE	4G	.	8d	4dd
.	.	.	8B	8g	.
I;	4AA;	4C;	4G;	4e;	4cc;
==	==	==	==	==	==
*-	*-	*-	*-	*-	*-
!!chor2scor: -l 2 -o %b.pmx
!!!YEC: Copyright 1994, David Huron
!!!YEC: Changes/Additions 2001 by Craig Stuart Sapp
!!!YEN: United States of America
!!!SMA: 371 Bach Chorales, edited by Ludwig Erk, C.F. Peters
!!!PDT: 1850, 1865
!!!ONB: Harmony and Root analysis done manually
